X:282
T:Steirer (80.)
C:traditionell
A:Salzkammergut
S:MIDI erhalten von Christian Amon. Nach einer kopie im besitz von Johann Stoeckl eines manuscriptes. Stoeckl(zitiert von Amon): "diese sammlung wurde 1935 im hause der familie Hohenlohe-Schillingfuerst gefunden. Sie wurde von einem der beiden brueder Steinegger 1866 verfasst. Die originale sind im Ausseer Kammerhofmuseum".
M:3/4
L:1/8
K:G
V:1
gd' |\
c'f fd dc' | bg gB Bg | f2 cd fA | B2 dg gd' |\
c'f fd dc' | bg gB Bg | f2 cd fA | B4 |*
V:2
db a|\
d dA Aa | gB BG Ge | d2 Ac dF | G2 Bd db |\
ad dA Aa | gB BG Ge | d2 Ac dF | G4 |*
